app/assets/images/heroicons/micro/arrow-trending-up.svg

<svg width="16" height="16" viewBox="0 0 16 16" fill="none" xmlns="http://www.w3.org/2000/svg">
<path fill-rule="evenodd" clip-rule="evenodd" d="M9.80789 4.05656C9.91678 3.65692 10.329 3.42122 10.7287 3.53011L13.8435 4.37883C14.2408 4.48708 14.4765 4.89535 14.3716 5.29351L13.5492 8.41543C13.4437 8.81598 13.0334 9.05515 12.6329 8.94963C12.2324 8.84411 11.9932 8.43386 12.0987 8.03332L12.4363 6.75181C11.1124 7.66161 9.9076 8.68754 8.82741 9.80796C8.6877 9.95287 8.49561 10.0355 8.29433 10.0374C8.09305 10.0392 7.89947 9.96008 7.75714 9.81775L6 8.0606L2.28033 11.7803C1.98744 12.0732 1.51256 12.0732 1.21967 11.7803C0.926777 11.4874 0.926777 11.0125 1.21967 10.7196L5.46967 6.46961C5.76256 6.17672 6.23744 6.17672 6.53033 6.46961L8.28597 8.22526C9.35156 7.18576 10.5223 6.23016 11.7936 5.37495L10.3343 4.97735C9.93469 4.86845 9.69899 4.4562 9.80789 4.05656Z" fill="#0F172A"/>
</svg>

<svg xmlns="http://www.w3.org/2000/svg" viewBox="0 0 16 16" fill="currentColor" aria-hidden="true" data-slot="icon">
  <path fill-rule="evenodd" d="M9.808 4.057a.75.75 0 0 1 .92-.527l3.116.849a.75.75 0 0 1 .528.915l-.823 3.121a.75.75 0 0 1-1.45-.382l.337-1.281a23.484 23.484 0 0 0-3.609 3.056.75.75 0 0 1-1.07.01L6 8.06l-3.72 3.72a.75.75 0 1 1-1.06-1.061l4.25-4.25a.75.75 0 0 1 1.06 0l1.756 1.755a25.015 25.015 0 0 1 3.508-2.85l-1.46-.398a.75.75 0 0 1-.526-.92Z" clip-rule="evenodd"/>
</svg>
